X:3
T:Inches to Dublin
C:Padraig Rynne
R:reel
D:"Three shouts from a hill" by Cian
Z:Transcribed by Lionel Gueganton
L:1/8
M:4/4
K:Em
|: E2BABEE/E/E | EEBABEE/E/E   | G^FE/F/GFEDB | cBABBAG^F   |
   EBBABEE/E/E | EEBABEE/E/E   | G^FE/F/GFEDF |1 AD^FDEFGF :|2 AD^FDEDCD
|: B,GG^FGFED  | B,GG^FGFE/F/G | ^FAAGFEDE    | EEDEEDCD    |
   B,GG^FGFED  | B,GG^FGFEF    | GABGABcA     |1 BdA^FE2ED :|2 BdA^FEFGF

